public/images/case-studies/speakinc/tech-icon6.svg

<svg width="120" height="34" viewBox="0 0 120 34" fill="none" xmlns="http://www.w3.org/2000/svg">
<path d="M13.6116 5.61584V15.1844H4.87067V5.61584H0.723633V28.4573H4.87179V19.1992H13.6104V28.4573H17.7597V5.61584H13.6116ZM31.0372 21.0746C31.0372 21.9901 30.6756 22.8681 30.0319 23.5155C29.3881 24.1629 28.5151 24.5266 27.6047 24.5266C26.6944 24.5266 25.8213 24.1629 25.1776 23.5155C24.5339 22.8681 24.1722 21.9901 24.1722 21.0746V11.2904H20.2374V21.0746C20.2374 23.0377 21.0128 24.9204 22.3931 26.3085C23.7734 27.6966 25.6454 28.4765 27.5974 28.4765C29.5494 28.4765 31.4215 27.6966 32.8018 26.3085C34.182 24.9204 34.9575 23.0377 34.9575 21.0746V11.2904H31.0372V21.0746ZM60.1933 12.2986C60.1933 10.2923 61.5124 9.65665 62.9573 9.65665C64.1226 9.65665 65.6606 10.5486 66.6676 11.6302L69.2441 8.57504C67.9575 6.82504 65.3485 5.61584 63.2121 5.61584C58.9427 5.61584 55.8554 8.1302 55.8554 12.2986C55.8554 20.0325 65.2542 17.5779 65.2542 21.9067C65.2542 23.2412 63.9654 24.4199 62.4902 24.4199C60.163 24.4199 59.4086 23.2762 58.3398 22.0658L55.4794 25.0567C57.3093 27.3147 59.5658 28.4618 62.268 28.4618C66.3241 28.4618 69.5865 25.917 69.5865 21.9383C69.5865 13.3531 60.1866 16.021 60.1866 12.2986H60.1933ZM118.339 24.8083C116.014 24.8083 115.353 23.7967 115.353 22.2476V15.3887H118.968V11.9136H115.353V7.32859L111.363 9.12939V23.1C111.363 26.6734 113.815 28.4742 117.176 28.4742C117.704 28.4833 118.232 28.4404 118.75 28.3478L119.724 24.7439C119.285 24.7744 118.781 24.8049 118.339 24.8049V24.8083ZM46.0155 11.4044C44.0666 11.4044 42.7059 11.9734 41.3902 13.2707V5.75246H37.4497V19.6881C37.4497 24.9042 41.1993 28.4787 45.4137 28.4787C50.0884 28.4787 54.2007 24.841 54.2007 19.9433C54.2007 15.1065 50.4162 11.4078 46.0155 11.4078V11.4044ZM45.9908 24.4899C45.4035 24.4899 44.822 24.3735 44.2794 24.1475C43.7368 23.9215 43.2438 23.5902 42.8286 23.1726C42.4133 22.755 42.0839 22.2592 41.8592 21.7135C41.6344 21.1678 41.5187 20.583 41.5187 19.9924C41.5187 19.4018 41.6344 18.8169 41.8592 18.2713C42.0839 17.7256 42.4133 17.2298 42.8286 16.8122C43.2438 16.3945 43.7368 16.0632 44.2794 15.8372C44.822 15.6112 45.4035 15.4949 45.9908 15.4949C47.1768 15.4949 48.3143 15.9687 49.153 16.8122C49.9917 17.6556 50.4628 18.7996 50.4628 19.9924C50.4628 21.1852 49.9917 22.3291 49.153 23.1726C48.3143 24.016 47.1768 24.4899 45.9908 24.4899ZM88.8106 19.7355C88.8106 14.8287 84.7073 11.2 80.0237 11.2C75.8104 11.2 72.0596 14.7734 72.0596 19.9907V33.9342H76.0001V26.4058C77.3136 27.7008 78.6765 28.2721 80.6232 28.2721C85.0239 28.2721 88.8095 24.5734 88.8095 19.7355H88.8106ZM85.0789 19.6858C85.0789 20.8787 84.6078 22.0226 83.7691 22.8661C82.9304 23.7095 81.7929 24.1833 80.6069 24.1833C79.4208 24.1833 78.2833 23.7095 77.4447 22.8661C76.606 22.0226 76.1348 20.8787 76.1348 19.6858C76.1348 18.493 76.606 17.3491 77.4447 16.5056C78.2833 15.6622 79.4208 15.1883 80.6069 15.1883C81.7929 15.1883 82.9304 15.6622 83.7691 16.5056C84.6078 17.3491 85.0789 18.493 85.0789 19.6858Z" fill="#33475B"/>
<path d="M101.543 11.0081V7.02603C102.066 6.78009 102.51 6.38975 102.821 5.90045C103.132 5.41115 103.299 4.84301 103.301 4.26216V4.1707C103.301 2.47716 101.936 1.10425 100.252 1.10425H100.161C99.3526 1.10425 98.577 1.42732 98.0052 2.0024C97.4334 2.57747 97.1122 3.35743 97.1122 4.1707V4.26216C97.1148 4.84301 97.2815 5.41115 97.5927 5.90045C97.904 6.38975 98.347 6.78009 98.8702 7.02603V11.0081C97.3664 11.2397 95.9501 11.8668 94.7647 12.8259L83.9054 4.31974C83.9829 4.03861 84.0233 3.74958 84.0278 3.45941C84.0291 2.77602 83.8289 2.10757 83.4524 1.53864C83.076 0.9697 82.5402 0.525829 81.9128 0.26317C81.2855 0.000510052 80.5948 -0.0691375 79.9281 0.0630366C79.2614 0.195211 78.6487 0.523268 78.1674 1.00571C77.6861 1.48816 77.3579 2.10332 77.2243 2.77338C77.0907 3.44343 77.1577 4.13829 77.4168 4.77005C77.6759 5.40182 78.1155 5.9421 78.68 6.32256C79.2445 6.70303 79.9085 6.90658 80.588 6.90748C81.1825 6.90466 81.7659 6.74505 82.2798 6.44458L92.973 14.813C92.0124 16.2724 91.5112 17.9891 91.5349 19.7392C91.5585 21.4892 92.1058 23.1916 93.1055 24.6243L89.8532 27.8962C89.5903 27.8116 89.3164 27.7667 89.0404 27.763C88.4826 27.7634 87.9375 27.9301 87.4739 28.2421C87.0103 28.554 86.649 28.9971 86.4357 29.5155C86.2225 30.0338 86.1668 30.6041 86.2757 31.1543C86.3847 31.7045 86.6533 32.2098 87.0477 32.6065C87.4422 33.0031 87.9446 33.2733 88.4917 33.3829C89.0387 33.4924 89.6058 33.4364 90.1212 33.2219C90.6366 33.0075 91.0773 32.6442 91.3874 32.1779C91.6976 31.7117 91.8634 31.1634 91.8638 30.6025C91.8602 30.3249 91.8156 30.0494 91.7314 29.7851L94.9488 26.5481C95.998 27.3605 97.2182 27.9205 98.5159 28.1854C99.8135 28.4502 101.154 28.4128 102.435 28.076C103.716 27.7393 104.904 27.1121 105.907 26.2425C106.909 25.3729 107.701 24.284 108.221 23.0592C108.741 21.8345 108.975 20.5063 108.905 19.1765C108.836 17.8467 108.464 16.5505 107.82 15.3873C107.175 14.224 106.275 13.2246 105.187 12.4656C104.099 11.7065 102.852 11.208 101.543 11.0081ZM100.21 24.1049C99.6149 24.1214 99.023 24.0178 98.4689 23.8003C97.9147 23.5828 97.4095 23.2558 96.9832 22.8387C96.5568 22.4215 96.2179 21.9226 95.9865 21.3715C95.7551 20.8204 95.6358 20.2282 95.6358 19.63C95.6358 19.0317 95.7551 18.4396 95.9865 17.8885C96.2179 17.3373 96.5568 16.8385 96.9832 16.4213C97.4095 16.0041 97.9147 15.6772 98.4689 15.4597C99.023 15.2422 99.6149 15.1386 100.21 15.1551C101.362 15.1956 102.454 15.6845 103.255 16.5186C104.056 17.3527 104.504 18.4669 104.505 19.6267C104.506 20.7864 104.059 21.9011 103.258 22.7361C102.458 23.571 101.366 24.0609 100.214 24.1026" fill="#FF7A59"/>
</svg>

<svg xmlns="http://www.w3.org/2000/svg" width="120" height="34" fill="none" xmlns:v="https://vecta.io/nano"><path d="M13.612 5.616v9.569H4.871V5.616H.724v22.841h4.148v-9.258h8.739v9.258h4.149V5.616h-4.148zm17.426 15.459a3.46 3.46 0 0 1-1.005 2.441c-.644.647-1.517 1.011-2.427 1.011s-1.783-.364-2.427-1.011a3.46 3.46 0 0 1-1.005-2.441V11.29h-3.935v9.784c0 1.963.775 3.846 2.156 5.234a7.34 7.34 0 0 0 10.409 0c1.38-1.388 2.156-3.271 2.156-5.234V11.29h-3.92v9.784zm29.156-8.776c0-2.006 1.319-2.642 2.764-2.642 1.165 0 2.703.892 3.71 1.974l2.577-3.055c-1.287-1.75-3.896-2.959-6.032-2.959-4.269 0-7.357 2.514-7.357 6.683 0 7.734 9.399 5.279 9.399 9.608 0 1.334-1.289 2.513-2.764 2.513-2.327 0-3.082-1.144-4.15-2.354l-2.86 2.991c1.83 2.258 4.086 3.405 6.789 3.405 4.056 0 7.319-2.545 7.319-6.523 0-8.585-9.4-5.917-9.4-9.64h.007zm58.146 12.51c-2.325 0-2.986-1.012-2.986-2.561v-6.859h3.615v-3.475h-3.615V7.329l-3.99 1.801V23.1c0 3.573 2.452 5.374 5.813 5.374.528.009 1.056-.034 1.574-.126l.974-3.604a20.94 20.94 0 0 1-1.385.061v.003zM46.016 11.404c-1.949 0-3.31.569-4.625 1.866V5.752h-3.94v13.936c0 5.216 3.75 8.791 7.964 8.791 4.675 0 8.787-3.638 8.787-8.535 0-4.837-3.784-8.535-8.185-8.535v-.003zm-.025 13.085a4.45 4.45 0 0 1-1.711-.342 4.47 4.47 0 0 1-1.451-.975c-.415-.418-.745-.913-.969-1.459a4.52 4.52 0 0 1 0-3.442c.225-.546.554-1.041.969-1.459a4.47 4.47 0 0 1 1.451-.975 4.45 4.45 0 0 1 1.711-.342 4.46 4.46 0 0 1 3.162 1.317 4.51 4.51 0 0 1 0 6.36 4.46 4.46 0 0 1-3.162 1.317zm42.82-4.754c0-4.907-4.103-8.535-8.787-8.535-4.213 0-7.964 3.573-7.964 8.791v13.943H76v-7.528c1.313 1.295 2.676 1.866 4.623 1.866 4.401 0 8.186-3.699 8.186-8.537h.001zm-3.732-.05a4.51 4.51 0 0 1-1.31 3.18 4.46 4.46 0 0 1-6.324 0 4.51 4.51 0 0 1 0-6.36 4.46 4.46 0 0 1 6.324 0 4.51 4.51 0 0 1 1.31 3.18z" fill="#33475b"/><path d="M101.543 11.008V7.026c.523-.246.967-.636 1.278-1.126s.478-1.057.48-1.638v-.091c0-1.694-1.365-3.066-3.049-3.066h-.091a3.04 3.04 0 0 0-2.156.898c-.572.575-.893 1.355-.893 2.168v.091a3.08 3.08 0 0 0 .48 1.638c.311.489.754.88 1.278 1.126v3.982a8.61 8.61 0 0 0-4.105 1.818L83.905 4.32c.078-.281.118-.57.122-.86a3.47 3.47 0 0 0-.575-1.921 3.44 3.44 0 0 0-1.54-1.275c-.627-.263-1.318-.332-1.985-.2a3.43 3.43 0 0 0-1.761.943 3.46 3.46 0 0 0-.943 1.768c-.134.67-.067 1.365.192 1.997a3.45 3.45 0 0 0 1.263 1.553 3.42 3.42 0 0 0 1.908.585c.595-.003 1.178-.162 1.692-.463l10.693 8.368c-.961 1.459-1.462 3.176-1.438 4.926s.571 3.452 1.571 4.885l-3.252 3.272c-.263-.085-.537-.13-.813-.133a2.81 2.81 0 0 0-1.567.479c-.464.312-.825.755-1.038 1.273s-.269 1.089-.16 1.639.378 1.056.772 1.452.897.667 1.444.776 1.114.053 1.63-.161.956-.578 1.266-1.044a2.85 2.85 0 0 0 .476-1.575c-.004-.278-.048-.553-.132-.817l3.217-3.237c1.049.812 2.269 1.372 3.567 1.637s2.638.227 3.919-.109 2.469-.964 3.472-1.834 1.794-1.959 2.314-3.183a8.76 8.76 0 0 0 .684-3.883c-.069-1.33-.441-2.626-1.085-3.789a8.71 8.71 0 0 0-2.633-2.922 8.65 8.65 0 0 0-3.644-1.457zm-1.333 13.097a4.43 4.43 0 0 1-1.741-.305 4.45 4.45 0 0 1-1.486-.962 4.48 4.48 0 0 1-.997-1.467 4.5 4.5 0 0 1 0-3.483c.231-.551.57-1.05.997-1.467s.931-.744 1.486-.962a4.43 4.43 0 0 1 1.741-.305 4.44 4.44 0 0 1 3.045 1.364c.801.834 1.249 1.948 1.25 3.108s-.446 2.274-1.247 3.109a4.44 4.44 0 0 1-3.044 1.366" fill="#ff7a59"/></svg>
